projects/packages/my-jetpack/_inc/components/connection-screen/apple.svg

<svg fill="none" height="17" viewBox="0 0 14 17" width="14" xmlns="http://www.w3.org/2000/svg"><path d="m9.3584 2.68018c.49219-.59473.8408-1.41504.8408-2.235356 0-.112793-.0102-.225586-.0307-.317871-.79985.030762-1.77397.533203-2.34819 1.209957-.46142.52295-.88183 1.34327-.88183 2.17383 0 .12305.0205.2461.03076.28711.05127.01026.1333.02051.21533.02051.72803 0 1.64063-.48193 2.17383-1.13818zm.56396 1.3125c-1.20996 0-2.19433.73828-2.81982.73828-.6665 0-1.54834-.69727-2.60449-.69727-1.99951 0-4.019534 1.66113-4.019534 4.76807 0 1.94824.748534 3.98874 1.671384 5.31154.79981 1.1177 1.49707 2.0405 2.4917 2.0405s1.42529-.6665 2.65576-.6665c1.25098 0 1.53809.646 2.625.646 1.08694 0 1.81494-.9946 2.49174-1.979.769-1.1279 1.0869-2.2148 1.0971-2.2764-.0615-.0205-2.143-.8613-2.143-3.2402 0-2.06104 1.6406-2.97364 1.7329-3.04541-1.0767-1.5586-2.7173-1.59961-3.17874-1.59961z" fill="#000"/></svg>

<svg width="14" height="17" viewBox="0 0 14 17" fill="none" xmlns="http://www.w3.org/2000/svg">
<path d="M9.3584 2.68018C9.85059 2.08545 10.1992 1.26514 10.1992 0.444824C10.1992 0.332031 10.189 0.219238 10.1685 0.126953C9.36865 0.157715 8.39453 0.660156 7.82031 1.33691C7.35889 1.85986 6.93848 2.68018 6.93848 3.51074C6.93848 3.63379 6.95898 3.75684 6.96924 3.79785C7.02051 3.80811 7.10254 3.81836 7.18457 3.81836C7.9126 3.81836 8.8252 3.33643 9.3584 2.68018ZM9.92236 3.99268C8.7124 3.99268 7.72803 4.73096 7.10254 4.73096C6.43604 4.73096 5.5542 4.03369 4.49805 4.03369C2.49854 4.03369 0.478516 5.69482 0.478516 8.80176C0.478516 10.75 1.22705 12.7905 2.1499 14.1133C2.94971 15.231 3.64697 16.1538 4.6416 16.1538C5.63623 16.1538 6.06689 15.4873 7.29736 15.4873C8.54834 15.4873 8.83545 16.1333 9.92236 16.1333C11.0093 16.1333 11.7373 15.1387 12.4141 14.1543C13.1831 13.0264 13.501 11.9395 13.5112 11.8779C13.4497 11.8574 11.3682 11.0166 11.3682 8.6377C11.3682 6.57666 13.0088 5.66406 13.1011 5.59229C12.0244 4.03369 10.3838 3.99268 9.92236 3.99268Z" fill="black"/>
</svg>
